!!!COA: des Prez, Josquin
!!!CDT: ~1450-1521/08/27
!!!OTL: Usquequo domine oblivisceris me
!!!AGN: Motet
!!!SCT: NJE 18.12
!!!SCA: New Josquin Edition 18.12
!!!voices: 4
**kern	**kern	**kern	**kern
*part4	*part3	*part2	*part1
*staff4	*staff3	*staff2	*staff1
*Ivox	*Ivox	*Ivox	*Ivox
*I"Bassus	*I"Tenor	*I"Altus	*I"Superius
*I'B	*I'T	*I'A	*I'S
*>[A,B]	*>[A,B]	*>[A,B]	*>[A,B]
*>A	*>A	*>A	*>A
*clefF4	*clefGv2	*clefGv2	*clefG2
*k[b-]	*k[b-]	*k[b-]	*k[b-]
*M2/1	*M2/1	*M2/1	*M2/1
*met(C|)	*met(C|)	*met(C|)	*met(C|)
!!section: Prima pars: Usquequo, domine
=	=	=	=
0r	0r	0r	0a
=3	=3	=3	=3
0r	0r	0r	1a
.	.	.	1b-
=4	=4	=4	=4
0r	0r	0d	1.a
.	.	.	2f
=5	=5	=5	=5
0r	0r	1d	1f
.	.	1e-X	2r
.	.	.	2g
=6	=6	=6	=6
0r	0r	1.d	1a
.	.	.	2.b-
.	.	2B-	.
.	.	.	4a
=7	=7	=7	=7
0r	0r	1B-	2g
.	.	.	2f
.	.	2r	1e
.	.	2c	.
=8	=8	=8	=8
0r	0r	1d	2r
.	.	.	2d
.	.	2.e-Xi	2.c
.	.	4d	4d
=9	=9	=9	=9
0r	0A	4c	2e
.	.	4B-	.
.	.	1c	2.f
.	.	.	4g
.	.	[2F	4a
.	.	.	4b-
=10	=10	=10	=10
0r	1A	1F]	2cc
.	.	.	1a
.	1B-	1G	.
.	.	.	2g
=11	=11	=11	=11
0D	1.A	1F	0a
.	.	2r	.
.	2F	[2f	.
=12	=12	=12	=12
1D	1F	4f]	0r
.	.	4e	.
.	.	1d	.
1E-X	2r	.	.
.	2G	2c	.
=13	=13	=13	=13
1.D	1A	0d	0r
.	2.B-	.	.
2BB-	.	.	.
.	4A	.	.
=14	=14	=14	=14
1BB-	2G	0r	0r
.	2F	.	.
2r	1E	.	.
2C	.	.	.
=15	=15	=15	=15
1D	2r	2r	0r
.	2D	2d	.
2.E-Xi	2.G	2.c	.
4D	4F	4B-	.
=16	=16	=16	=16
2C	2E	2A	0r
2BB-	1D	1G	.
1AA	.	.	.
.	2C	2F#Xi	.
=17	=17	=17	=17
0GG	1D	1G	0b-
.	1d	2.g	.
.	.	4f	.
=18	=18	=18	=18
2.AA	1.c	4e-X	2.cc
.	.	4d	.
.	.	2.f	.
4BB-	.	.	4b-
2C	.	.	4a
.	.	4e-Xi	4g
2D	2B-	[2d	[2b-
=19	=19	=19	=19
1E	1G	2d]	4b-]
.	.	.	4a
.	.	2c	1g
1D	1A	[1d	.
.	.	.	2f#Xi
=20	=20	=20	=20
0GG	1G	1d]	1g
.	1r	1r	1r
=21	=21	=21	=21
1r	1.A	0r	0r
[1D	.	.	.
.	2A	.	.
=22	=22	=22	=22
2D]	1A	0r	0r
2D	.	.	.
1D	1B-	.	.
=23	=23	=23	=23
1E	1G	0r	1r
1C	[1A	.	[1a
=24	=24	=24	=24
0D	1A]	1.d	2a]
.	.	.	2a
.	1r	.	1a
.	.	2d	.
=25	=25	=25	=25
0r	0r	1d	1b-
.	.	1e	1g
=26	=26	=26	=26
1r	0r	1c	0a
[1D	.	[1d	.
=27	=27	=27	=27
2D]	1.A	1d]	0r
2D	.	.	.
1D	.	1r	.
.	2A	.	.
=28	=28	=28	=28
2.F	1A	0r	0r
4E	.	.	.
2.C	2.c	.	.
4D	4B-	.	.
=29	=29	=29	=29
4E	2.G	0r	0r
4F	.	.	.
2.G	.	.	.
.	4A	.	.
.	4B-	.	.
4A	4c	.	.
[2B-	4d	.	.
.	4e	.	.
=30	=30	=30	=30
4B-]	2.f	0r	1r
4A	.	.	.
2.A	.	.	.
.	4e	.	.
.	2c	.	[1a
4G	.	.	.
[2F	[2d	.	.
=31	=31	=31	=31
4F]	2d]	1.d	2a]
4D	.	.	.
1G	4c	.	2a
.	4B-	.	.
.	1A	.	1a
2F#Xi	.	2d	.
=32	=32	=32	=32
1G	1G	1d	1b-
1r	2r	2.e-Xi	1g
.	2G	.	.
.	.	4d	.
=33	=33	=33	=33
2r	2.c	4c	2a
.	.	4B-	.
2C	.	4A	2.cc
.	4B-	4G	.
2.F	4A	2A	.
.	4G	.	4b-
.	4F	2D	4a
4E	4E	.	4g
=34	=34	=34	=34
4D	2D	1d	4f
4C	.	.	4e
4BB-	2.G	.	1d
4AA	.	.	.
2GG	.	1d	.
.	4A	.	.
2GG	4B-	.	[2g
.	4c	.	.
=35	=35	=35	=35
1D	1A	1d	2g]
.	.	.	2f#Xi
[1GG	[1G	2r	[1g
.	.	[2B-	.
=36	=36	=36	=36
1GG]	1G]	2B-]	1g]
.	.	2B-	.
2r	1r	2c	1r
[2BB-	.	[2d	.
=37	=37	=37	=37
2BB-]	0r	4d]	1r
.	.	4c	.
2BB-	.	2B-	.
2C	.	1A	2r
[2D	.	.	[2f
=38	=38	=38	=38
4D]	1r	0r	2f]
4E	.	.	.
2F	.	.	2f
2E	2r	.	2g
2D	[2F	.	[2a
=39	=39	=39	=39
2r	2F]	0r	4a]
.	.	.	4g
2D	2F	.	2f
2E	2G	.	1e
2C	[2A	.	.
=40	=40	=40	=40
1D	2A]	2r	2r
.	2A	2d	2f
1r	2r	2e	2g
.	2A	2c	2e
=41	=41	=41	=41
0r	2B-	1d	1d
.	2G	.	.
.	1A	2r	2r
.	.	2c	2f
=42	=42	=42	=42
0r	2r	2B-	2.g
.	2B-	2G	.
.	.	.	4f
.	2.c	2.A	2e
.	.	.	2d
.	4B-	4B-	.
=43	=43	=43	=43
0r	2A	2c	2c
.	2G	2B-	2.d
.	2F	2A	.
.	.	.	4c
.	2E	[2G	[2c
=44	=44	=44	=44
1r	1D	2G]	2c]
.	.	2F	2Bni
2r	[1C	1G	1c
2G	.	.	.
=45	=45	=45	=45
1G	0C]	1r	2r
.	.	.	2g
1E	.	2r	1g
.	.	2G	.
=46	=46	=46	=46
2r	1r	1G	0e
1C	.	.	.
.	2r	[1E	.
[2G	2G	.	.
=47	=47	=47	=47
4G]	1G	1E]	2r
4F	.	.	.
4E	.	.	2.g
4D	.	.	.
1C	1E	2r	.
.	.	.	4f
.	.	[2E	2e
=48	=48	=48	=48
1BB-	1G	2E]	1d
.	.	2D	.
2.AA	1A	1E	2.c
4BB-	.	.	4d
=49	=49	=49	=49
1C	2G	2r	1e
.	1c	1G	.
1D	.	.	1f
.	2B-	2F	.
=50	=50	=50	=50
2.C	1c	2G	1e
.	.	2A	.
4BB-	.	.	.
2GG	[1d	2.B-	1r
[2BB-	.	.	.
.	.	4A	.
=51	=51	=51	=51
2BB-]	2d]	2F	0r
2C	4c	2r	.
.	4B-	.	.
2D	2A	2f	.
2C	[2c	2g	.
=52	=52	=52	=52
2.F	4c]	2f	2r
.	4B-	.	.
.	4A	1c	1a
4E	4G	.	.
4D	2F	.	.
4C	.	.	.
2BB-	[2G	2d	2b-
=53	=53	=53	=53
1AA	2G]	2c	1cc
.	2F#Xi	2A	.
1GG	1G	2.B-	2b-
.	.	.	[2g
.	.	4c	.
=54	=54	=54	=54
1D	1A	1d	2g]
.	.	.	2f#Xi
1GG	[1G	[1d	[1g
=55	=55	=55	=55
2r	1G]	1d]	1g]
1B-	.	.	.
.	1r	2r	1r
2B-	.	[2f	.
=56	=56	=56	=56
2B-	0r	2f]	0r
1B-	.	2f	.
.	.	2f	.
2A	.	[2f	.
=57	=57	=57	=57
2B-	0r	2f]	0r
2G	.	2e	.
1F	.	2f	.
.	.	2d	.
=58	=58	=58	=58
2r	0r	1c	0r
1F	.	.	.
.	.	2r	.
2F	.	[2c	.
=59	=59	=59	=59
2F	0r	2c]	0r
2E	.	2c	.
2F	.	2c	.
2D	.	2B-	.
=60	=60	=60	=60
1C	0r	2c	1r
.	.	2A	.
2r	.	1G	2r
[2G	.	.	[2b-
=61	=61	=61	=61
2G]	0r	2r	2b-]
2G	.	1d	2b-
2G	.	.	2b-
[2G	.	2d	[2b-
=62	=62	=62	=62
2G]	1r	2e	2b-]
2F	.	2f	2a
2G	2r	2d	2b-
2GG	[2B-	2d	2g
=63	=63	=63	=63
1BB-	2B-]	1d	1f
.	2B-	.	.
2r	2B-	1r	2r
[2D	[2B-	.	[2f
=64	=64	=64	=64
2D]	2B-]	0r	2f]
2D	2A	.	2f
2D	2B-	.	2f
2C	2G	.	2e
=65	=65	=65	=65
2D	1F	1r	2f
2BB-	.	.	2d
2AA	2r	2r	2c
[2GG	[2B-	[2d	[2g
=66	=66	=66	=66
4GG]	2B-]	2d]	2g]
4AA	.	.	.
2BB-	2B-	1d	2f
2GG	2B-	.	2g
2D	2F	[2d	[2a
=67	=67	=67	=67
1E-Xi	1G	2d]	4a]
.	.	.	4g
.	.	2c	2.g
1D	1A	1d	.
.	.	.	4e
.	.	.	2f#Xi
=68	=68	=68	=68
1GG	1G	1B-	1g
1r	1A	2r	1f
.	.	2c	.
=69	=69	=69	=69
0r	2B-	2d	0r
.	1G	2B-	.
.	.	1A	.
.	2F#Xi	.	.
=70	=70	=70	=70
2r	1G	2G	0r
1GG	.	2.G	.
.	2r	.	.
.	.	4F	.
[2GG	[2D	4G	.
.	.	4A	.
=71	=71	=71	=71
4GG]	2D]	1B-	2r
4FF	.	.	.
4GG	2.D	.	1d
4AA	.	.	.
1BB-	.	2r	.
.	4C	.	.
.	4D	[2B-	[2d
.	4E	.	.
=72	=72	=72	=72
2r	1F	2B-]	4d]
.	.	.	4c
1BB-	.	2.B-	4d
.	.	.	4e
.	2r	.	1f
.	.	4A	.
[2BB-	[2F	4B-	.
.	.	4c	.
=73	=73	=73	=73
4BB-]	2F]	2d	2r
4AA	.	.	.
4BB-	2.F	2d	1f
4C	.	.	.
2D	.	1d	.
.	4E	.	.
2D	4F	.	[2f
.	4G	.	.
=74	=74	=74	=74
1D	2A	2r	4f]
.	.	.	4e
.	2A	2.d	4f
.	.	.	4g
2r	1A	.	2a
.	.	4c	.
[2D	.	4d	2a
.	.	4e	.
=75	=75	=75	=75
4D]	2r	2f	1a
4C	.	.	.
4D	2.A	2f	.
4E	.	.	.
2F	.	1f	2r
.	4G	.	.
2F	4A	.	[2a
.	4B-	.	.
=76	=76	=76	=76
1F	2c	2r	4a]
.	.	.	4g
.	2c	2.f	4a
.	.	.	4b-
2r	1c	.	2cc
.	.	4g	.
[2F	.	[2a	2cc
=77	=77	=77	=77
4F]	2r	4a]	1cc
4G	.	4g	.
1A	2.c	4f	.
.	.	4e-X	.
.	.	4d	2a
.	4d	4c	.
[2G	[2e-X	[2B-	[2b-
=78	=78	=78	=78
2G]	4e-]	4B-]	4b-]
.	4d	4A	4a
2F	1d	1A	2f
1E-Xi	.	.	1g
.	2c	2G	.
=79	=79	=79	=79
[0Dl	[0dl	1A	[0fl
.	.	1B-	.
=80	=80	=80	=80
0D]	0d]	0Al	0f]
!!LO:LB:i:g=z
=81||	=81||	=81||	=81||
*>B	*>B	*>B	*>B
*clefF4	*clefGv2	*clefGv2	*clefG2
*k[b-]	*k[b-]	*k[b-]	*k[b-]
*M2/1	*M2/1	*M2/1	*M2/1
*met(C|)	*met(C|)	*met(C|)	*met(C|)
!!section: Secunda pars: Illumina oculos meos
!!!OMD: Secunda pars: Illumina oculos meos
2.D	0d	2.A	0r
4E	.	4G	.
2F	.	2A	.
[2G	.	[2B-	.
=82	=82	=82	=82
2G]	1d	2B-]	0r
4F	.	4A	.
4E	.	4G	.
1F	1d	1A	.
=83	=83	=83	=83
1G	0d	1B-	1r
1D	.	1A	2.a
.	.	.	4g
=84	=84	=84	=84
0r	0d	2F	2a
.	.	1G	1b-
.	.	4F	4a
.	.	4E	4g
=85	=85	=85	=85
1r	1.c	1F	1a
1C	.	1G	[1g
.	2B-	.	.
=86	=86	=86	=86
2C	1G	1c	2g]
2E	.	.	4f#Xi
.	.	.	4e
1D	1A	1d	1f#Xi
=87	=87	=87	=87
1GG	0G	1B-	0g
2r	.	1r	.
2C	.	.	.
=88	=88	=88	=88
2C	0r	2r	0r
2.C	.	2G	.
.	.	2G	.
4D	.	.	.
4E	.	[2G	.
4F	.	.	.
=89	=89	=89	=89
2G	0r	4G]	0r
.	.	4A	.
2G	.	4B-	.
.	.	4c	.
1G	.	2d	.
.	.	2d	.
=90	=90	=90	=90
2r	0r	1d	0r
1B-	.	.	.
.	.	2r	.
2A	.	[2f	.
=91	=91	=91	=91
2B-	0r	2f]	0r
2G	.	2e	.
1F	.	2f	.
.	.	2d	.
=92	=92	=92	=92
2r	0r	1c	0r
2.F	.	.	.
.	.	2r	.
4E	.	.	.
4D	.	[2B-	.
4C	.	.	.
=93	=93	=93	=93
2D	0r	4B-]	0r
.	.	4A	.
4C	.	1G	.
4BB-	.	.	.
1AA	.	.	.
.	.	2F#Xi	.
=94	=94	=94	=94
0GG	1r	0G	0r
.	2r	.	.
.	2G	.	.
=95	=95	=95	=95
0r	2G	0r	2r
.	2.G	.	2d
.	.	.	2d
.	4A	.	.
.	4B-	.	[2d
.	4c	.	.
=96	=96	=96	=96
0r	2d	0r	4d]
.	.	.	4e
.	2d	.	4f
.	.	.	4g
.	1d	.	2a
.	.	.	2a
=97	=97	=97	=97
0r	2r	0r	1a
.	1f	.	.
.	.	.	2r
.	2e	.	[2cc
=98	=98	=98	=98
0r	2f	0r	2cc]
.	2d	.	2b-
.	1c	.	2cc
.	.	.	2a
=99	=99	=99	=99
0r	2r	0r	1g
.	2.c	.	.
.	.	.	2r
.	4B-	.	.
.	4A	.	[2f
.	4G	.	.
=100	=100	=100	=100
0r	2A	0r	4f]
.	.	.	4e
.	4G	.	1d
.	4F	.	.
.	1E	.	.
.	.	.	2c#Xi
=101	=101	=101	=101
0GG	0D	0G	0d
=102	=102	=102	=102
1BB-	1r	1F	1r
1BB-	1d	1B-	1f
=103	=103	=103	=103
0C	2.c	0G	2.e
.	4B-	.	4f
.	2G	.	2g
.	2E	.	2c
=104	=104	=104	=104
0D	2F	0d	2r
.	1A	.	1f
.	2B-	.	2f
=105	=105	=105	=105
1r	2A	1r	2f
.	1d	.	2f
[1D	.	[1d	2.f
.	4c	.	.
.	4B-	.	4g
=106	=106	=106	=106
1D]	2A	1d]	2a
.	2B-	.	1g
1D	1A	1d	.
.	.	.	2f#Xi
=107	=107	=107	=107
0E-Xi	0G	1B-	0g
.	.	[1c	.
=108	=108	=108	=108
0D	1A	2c]	1r
.	.	4B-	.
.	.	4A	.
.	1F	1B-	[1f
=109	=109	=109	=109
0C	1G	0c	2f]
.	.	.	4e
.	.	.	4d
.	1G	.	2e
.	.	.	2e
=110	=110	=110	=110
0D	0F	1A	0f
.	.	2.d	.
.	.	4c	.
=111	=111	=111	=111
2r	0r	2B-	0r
2D	.	2A	.
[1E-Xi	.	2G	.
.	.	[2c	.
=112	=112	=112	=112
2E-]	0r	2c]	0r
2D	.	2B-	.
2C	.	2A	.
2BB-	.	2G	.
=113	=113	=113	=113
2AA	1r	2F	1r
2BB-	.	1G	.
1AA	1c	.	1a
.	.	2F#Xi	.
=114	=114	=114	=114
1GG	2.B-	2G	2b-
.	.	2.d	4a
.	4c	.	4g
2r	1d	.	2f
.	.	4e	.
2BB-	.	2f	2b-
=115	=115	=115	=115
2C	2.c	1e	2a
2C	.	.	1g
.	4B-	.	.
1D	1A	1d	.
.	.	.	2f#Xi
!!LO:TX:Z=12:t=[cut-circle over 3 mensuration]
=116	=116	=116	=116
*M3/1	*M3/1	*M3/1	*M3/1
*met(O|/3)	*met(O|/3)	*met(O|/3)	*met(O|/3)
!!primary-mensuration: met(3)
0GG	0G	0d	0g
1r	1r	1r	1r
=117	=117	=117	=117
0.r	0.r	0f	1.a
.	.	.	2g
.	.	1f	2a
.	.	.	2b-
=118	=118	=118	=118
0.r	0.r	1e	0cc
.	.	0d	.
.	.	.	1bni
=119	=119	=119	=119
0F	1.A	0.c	0.cc
.	2G	.	.
1F	2A	.	.
.	2B-	.	.
=120	=120	=120	=120
1E	0c	0.r	0.r
0D	.	.	.
.	1Bni	.	.
=121	=121	=121	=121
0.C	0.c	0G	0cc
.	.	1A	2b-
.	.	.	2a
=122	=122	=122	=122
0.r	0.r	1.B-	1g
.	.	.	0f
.	.	2c	.
.	.	1d	.
=123	=123	=123	=123
1r	1r	1e-Xi	1g
1r	1r	1d	1f
1C	1G	1c	1e
=124	=124	=124	=124
0G	1.B-	0.d	0.d
.	2c	.	.
1F	[1d	.	.
=125	=125	=125	=125
1G	2d]	0.r	0.r
.	2c	.	.
1.A	0c	.	.
2G	.	.	.
=126	=126	=126	=126
0G	1B-	0.r	0.r
.	0A	.	.
1F#Xi	.	.	.
=127	=127	=127	=127
*M2/1	*M2/1	*M2/1	*M2/1
*met(C|)	*met(C|)	*met(C|)	*met(C|)
0G	1G	0r	2r
.	.	.	2g
.	2r	.	2b-
.	2G	.	2b-
=128	=128	=128	=128
0r	2B-	0r	2b-
.	2B-	.	2b-
.	2B-	.	1f
.	2B-	.	.
=129	=129	=129	=129
0r	1F	0r	2r
.	.	.	2a
.	2r	.	2.cc
.	2A	.	.
.	.	.	4b-
=130	=130	=130	=130
0r	2.c	0r	2.g
.	4B-	.	4a
.	2.G	.	1b-
.	4A	.	.
=131	=131	=131	=131
1r	1B-	2r	1r
.	.	2G	.
2r	1r	2B-	1dd
2GG	.	2B-	.
=132	=132	=132	=132
2BB-	0r	2B-	1dd
2BB-	.	2B-	.
2BB-	.	1F	1dd
2BB-	.	.	.
=133	=133	=133	=133
1FF	0r	2r	1cc
.	.	2A	.
2r	.	2.c	2a
2AA	.	.	[2cc
.	.	4B-	.
=134	=134	=134	=134
2.C	0r	2.G	4cc]
.	.	.	4b-
.	.	.	2.g
4BB-	.	4A	.
2.GG	.	2.B-	.
.	.	.	4a
.	.	.	[2b-
4AA	.	4c	.
=135	=135	=135	=135
1BB-	1r	1d	4b-]
.	.	.	4a
.	.	.	2.f
1D	2r	2r	.
.	.	.	4g
.	[2d	[2f	[2a
=136	=136	=136	=136
1D	2d]	2f]	2a]
.	2d	2f	2b-
1D	2A	2f	1a
.	2B-	2f	.
=137	=137	=137	=137
1C	2c	2e	2r
.	2c	2e	2.cc
2AA	2.c	2.c	.
.	.	.	4b-
[2C	.	.	[2g
.	4B-	4d	.
=138	=138	=138	=138
4C]	2.G	4e	4g]
4BB-	.	4f	4a
2.GG	.	2.g	2.b-
.	4A	.	.
.	2.B-	.	.
4AA	.	4f	4a
[2BB-	.	[2d	[2f
.	4A	.	.
=139	=139	=139	=139
4BB-]	2.F	4d]	4f]
4AA	.	4e	4g
2.FF	.	2.f	2.a
.	4G	.	.
.	2.A	.	.
4GG	.	4e	4b-
[2AA	.	[2c	[2cc
.	4B-	.	.
=140	=140	=140	=140
4AA]	2.c	4c]	4cc]
4BB-	.	4d	4b-
2C	.	2.e	4a
.	4B-	.	4g
1D	4A	.	2f
.	4G	4d	.
.	2F	[2d	[2a
=141	=141	=141	=141
1E	1G	2d]	4a]
.	.	.	4g
.	.	2c	1g
1D	1A	1d	.
.	.	.	2f#Xi
=142	=142	=142	=142
2r	0G	1d	0g
1G	.	.	.
.	.	2r	.
2G	.	[2d	.
=143	=143	=143	=143
2.B-	0r	2d]	0r
.	.	2d	.
4A	.	.	.
1F	.	2.f	.
.	.	4e	.
=144	=144	=144	=144
2r	0r	1c	0r
1F	.	.	.
.	.	2r	.
2E	.	[2c	.
=145	=145	=145	=145
2F	0r	2c]	1r
2D	.	2B-	.
1C	.	[1c	2r
.	.	.	[2g
=146	=146	=146	=146
1C	2r	1c]	2g]
.	1G	.	2g
1r	.	2r	2.b-
.	2G	[2d	.
.	.	.	4a
=147	=147	=147	=147
2r	2.B-	2d]	1f
1D	.	2d	.
.	4A	.	.
.	2F	2.f	1a
2D	[2A	.	.
.	.	4e	.
=148	=148	=148	=148
2.F	2A]	1c	2a
.	2A	.	2.cc
4E	.	.	.
1C	2.c	1e	.
.	.	.	4b-
.	.	.	2g
.	4B-	.	.
=149	=149	=149	=149
1C	1G	2e	1r
.	.	2.g	.
1BB-	2r	.	1b-
.	.	4f	.
.	[2G	2d	.
=150	=150	=150	=150
1AA	2G]	2c	1cc
.	2F	2A	.
1GG	1G	2.B-	1b-
.	.	4c	.
=151	=151	=151	=151
0r	2F	4d	1.a
.	.	4e	.
.	1D	2.f	.
.	.	4e	.
.	2E	[2e	2g
=152	=152	=152	=152
0r	2F	4e]	1f
.	.	4d	.
.	2G	1d	.
.	1A	.	1e
.	.	2c#Xi	.
=153	=153	=153	=153
4GG	2.D	2d	1d
4AA	.	.	.
4BB-	.	4c	.
4C	4E	4B-	.
2D	2F	2A	1r
2GG	[2G	2B-	.
=154	=154	=154	=154
1D	2G]	1A	1a
.	2F	.	.
2E	1G	2r	1g
[2G	.	2d	.
=155	=155	=155	=155
2G]	1A	2e	1cc
2F	.	2f	.
1G	1B-	1d	1b-
=156	=156	=156	=156
1r	1.c	1e	1g
[1F	.	1r	1r
.	2A	.	.
=157	=157	=157	=157
2F]	1A	1.f	1r
2D	.	.	.
1D	1r	.	[1a
.	.	2d	.
=158	=158	=158	=158
1r	2r	1d	2a]
.	2B-	.	2f
1D	2A	2r	1f
.	2d	[2f	.
=159	=159	=159	=159
1F	2c	2f]	1cc
.	2A	2f	.
1G	2B-	2.d	1b-
.	[2d	.	.
.	.	4c	.
=160	=160	=160	=160
1.G	4d]	2B-	2g
.	4c	.	.
.	2.B-	2G	2.b-
.	.	1d	.
.	4A	.	4cc
2B-	[2G	.	2dd
=161	=161	=161	=161
1A	2G]	1r	1cc
.	2F#Xi	.	.
1G	1G	1d	1b-
=162	=162	=162	=162
2.D	0r	2d	1a
.	.	2d	.
4E	.	.	.
1F	.	2c	2a
.	.	2c	2a
=163	=163	=163	=163
0r	1r	2B-	2g
.	.	2B-	2g
.	1d	1B-	1f
=164	=164	=164	=164
0r	2d	2r	2.f
.	2d	2B-	.
.	.	.	4g
.	2c	2A	1a
.	2c	2A	.
=165	=165	=165	=165
1G	2B-	2G	1b-
.	2B-	1d	.
2G	1B-	.	2r
2G	.	2e	2b-
=166	=166	=166	=166
2F	2.c	2.f	2a
2F	.	.	2a
.	4B-	4e	.
1E	1G	1c	2g
.	.	.	2g
=167	=167	=167	=167
1D	1A	1d	2f#Xi
.	.	.	2f#Xi
2GG	1G	1d	1g
[2B-	.	.	.
=168	=168	=168	=168
2B-]	0r	2r	0r
2B-	.	1f	.
2B-	.	.	.
2B-	.	2f	.
=169	=169	=169	=169
2B-	0r	2f	0r
2B-	.	2f	.
2A	.	2f	.
2A	.	2f	.
=170	=170	=170	=170
2G	2r	2e	2r
1G	1B-	2e	1g
.	.	2d	.
2G	2B-	2d	2g
=171	=171	=171	=171
2G	2B-	2d	2g
2G	2B-	2d	2g
2G	2B-	2d	2g
2G	2B-	2d	2g
=172	=172	=172	=172
2F	2A	2d	2a
2F	2A	2d	2f
1C	1G	1c	1e
=173	=173	=173	=173
0r	2.B-	1r	2r
.	.	.	2.d
.	4A	.	.
.	1F	2.f	.
.	.	.	4e
.	.	.	4f
.	.	4e	4g
=174	=174	=174	=174
0r	2r	2c	2a
.	1G	2.d	2.b-
.	.	4e	4cc
.	2F	2f	[2dd
=175	=175	=175	=175
0r	2G	1e	2dd]
.	2A	.	2cc#Xi
.	2.D	1d	1dd
.	4E	.	.
=176	=176	=176	=176
2.D	2.F	0r	0a
4E	4G	.	.
2F	2A	.	.
[2G	2B-	.	.
=177	=177	=177	=177
2G]	1A	0r	1a
2F#Xi	.	.	.
2G	1G	.	1b-
2GG	.	.	.
=178	=178	=178	=178
2.D	2.F	0d	1.a
4E	4G	.	.
2.F	2.A	.	.
.	.	.	2f
4E	4G	.	.
=179	=179	=179	=179
4D	4F	1d	1f
4C	4E	.	.
2BB-	2D	.	.
1C	1G	1e-Xi	2r
.	.	.	2g
=180	=180	=180	=180
0r	0r	1.d	1a
.	.	.	2.b-
.	.	2B-	.
.	.	.	4a
=181	=181	=181	=181
0r	0r	1B-	2g
.	.	.	2f
.	.	2r	1e
.	.	2c	.
=182	=182	=182	=182
0r	0r	1d	2r
.	.	.	2d
.	.	2.e-Xi	2.c
.	.	4d	4d
=183	=183	=183	=183
0r	0A	4c	2e
.	.	4B-	.
.	.	1c	2.f
.	.	.	4g
.	.	[2F	4a
.	.	.	4b-
=184	=184	=184	=184
0r	1A	1F]	2cc
.	.	.	1a
.	1B-	1G	.
.	.	.	2g
=185	=185	=185	=185
0D	1.A	1F	0a
.	.	2r	.
.	2F	[2f	.
=186	=186	=186	=186
1D	1F	4f]	0r
.	.	4e	.
.	.	1d	.
1E-Xi	2r	.	.
.	2G	2c	.
=187	=187	=187	=187
1.D	1A	0d	0r
.	2.B-	.	.
2BB-	.	.	.
.	4A	.	.
=188	=188	=188	=188
1BB-	2G	0r	0r
.	2F	.	.
2r	1E	.	.
2C	.	.	.
=189	=189	=189	=189
1D	2r	2r	0r
.	2D	2d	.
2.E-Xi	2.G	2.c	.
4D	4F	4B-	.
=190	=190	=190	=190
2C	2E	2A	0r
2BB-	1D	1G	.
1AA	.	.	.
.	2C	2F#Xi	.
=191	=191	=191	=191
0GG	1D	1G	0b-
.	1d	2.g	.
.	.	4f	.
=192	=192	=192	=192
2.AA	1.c	4e	2.cc
.	.	4d	.
.	.	2.f	.
4BB-	.	.	4b-
2C	.	.	4a
.	.	4e	4g
2D	2B-	[2d	[2b-
=193	=193	=193	=193
1E-Xi	1G	2d]	4b-]
.	.	.	4a
.	.	2c	1g
1D	1A	1d	.
.	.	.	2f#Xi
=194	=194	=194	=194
0GGl	0Gl	0dl	0gl
==	==	==	==
*-	*-	*-	*-
!!!RDF**kern: l=long note in original notation
!!!system-decoration: s1,s2,s3,s4
!!!RDF**kern: i = editorial accidental
!!!RDF**kern: V = start of tuplet marker
!!!RDF**kern: Z = end of tuplet marker
!!!ENC: Chris Gage 07-01-2014
!!!END: 2020/10/21/
!!!EED: Jesse Rodin
!!!EEV: 2021/04/28/
!!attribution-level@Jos: 4a (the rest [double question mark])
!!!ONB: Translated from MusicXML and edited on 2021/04/28/ by Craig Sapp
!!muse2ps: C^@{COA}??\n@{SCT}^i2I150v85,85,85,150z18c125
